Mono Glyph Icons/actions/unfilled/snap-intersection.svg

<svg height="48" viewBox="0 -960 960 960" width="48" xmlns="http://www.w3.org/2000/svg"><path d="m480.11-346.68c-.04 0-.079 0-.122 0-.04 0-.079 0-.119 0-37.103 0-68.66-12.95-94.635-38.64-17.821-17.81-29.535-38.03-35.119-61.1-2.568-10.32-3.864-21.63-3.864-32.96v-.42c0-20.525 4.003-39.382 12.008-56.524l-137.745-137.746c-18.109 6.19-36.604 7.22-55.585 3.17-4.461-.95-8.804-2.19-13.026-3.7-15.121-5.03-28.779-13.56-40.882-25.67-20.764-20.76-31.187-45.49-31.293-74.21-.085-28.72 10.31-53.54 31.056-74.29 20.895-20.89 45.715-31.29 74.43-31.2 28.871-.05 53.747 10.23 74.512 31 11.353 11.35 19.644 24 24.74 38.04 2.012 5.06 3.6 10.3 4.759 15.73 4.072 19.06 2.896 37.75-3.38 55.94l137.836 137.838c17.08-7.915 35.85-11.908 56.307-11.908 37.143 0 68.741 12.95 94.757 38.85 25.995 25.9 39.003 57.47 39.003 94.48v.4.22c0 15.37-2.329 29.93-6.92 43.28-1.466 4.346-3.162 8.593-5.088 12.739l137.519 137.521c18.194-6.28 36.887-7.46 55.937-3.38 13.972 2.98 26.709 8.79 38.264 17.38 6.445 4.17 12.546 9.15 18.318 14.92 20.768 20.77 31.047 45.64 30.985 74.5.101 28.73-10.307 53.53-31.202 74.43-20.747 20.744-45.553 31.152-74.285 31.058-28.703-.094-53.434-10.513-74.202-31.278-5.73-5.73-10.657-11.81-14.791-18.22-8.61-11.62-14.389-24.47-17.382-38.5-4.048-18.98-3.023-37.47 3.171-55.58l-137.847-137.848c-17.028 7.774-35.732 11.678-56.115 11.678zm-38.538-94.68c10.62 10.73 24.519 15.98 38.416 15.98 7.467 0 14.89-1.42 21.83-4.45 6.068-2.63 11.751-6.69 16.708-11.53 1.315-1.2 2.53-2.63 3.681-4.02 17.378-21.48 16.104-52.83-3.781-72.64-8.397-8.71-18.833-13.77-29.699-15.39-14.948-2.43-30.706 1.41-43.048 11.53-1.456 1.24-2.872 2.42-4.205 3.86-.709.62-1.357 1.4-2.005 2.01-19.118 21.46-18.43 54.21 2.103 74.65z" stroke-width=".003"/><g stroke-width=".05" transform="matrix(.70710701 .70710701 -.70710701 .70710701 -227.420071 -550.160883)"><path d="m549.593-791.42c-15.584 0-28.671-5.42-39.281-16.04-10.611-10.84-15.915-24.04-15.915-39.6 0-15.55 5.376-28.54 16.128-39.14 10.727-10.61 23.907-16.03 39.492-16.03 15.562 0 28.671 5.42 39.282 16.26 10.609 10.61 15.915 23.82 15.915 39.38 0 15.57-5.376 28.76-16.128 39.38-10.751 10.6-23.907 15.79-39.493 15.79z"/><path d="m892.867-451.85c0-15.1 5.519-28 16.579-38.9 11.03-10.8 24.21-16.3 39.49-16.3s28.41 5.7 39.43 16.8c10.98 10.8 16.494 24 16.494 39.4 0 .5-.01 1-.02 1.49.01.57.02 1.13.02 1.71 0 15.32-5.607 28.29-16.783 38.9-11.201 10.61-24.545 15.79-40.012 15.79-15.161 0-28.129-5.42-38.952-16.27-10.846-10.84-16.246-23.81-16.246-38.9 0-.61.009-1.22.027-1.82-.018-.63-.027-1.26-.027-1.9z"/><path d="m95.926-451.85c0-15.1 5.445-28 16.339-38.9 10.894-10.8 23.862-16.3 38.905-16.3s28.057 5.7 39.068 16.8c10.987 10.8 16.505 24 16.505 39.4 0 .53-.007 1.06-.02 1.59.013.54.02 1.07.02 1.61 0 15.32-5.542 28.29-16.576 38.9-11.058 10.61-24.213 15.79-39.493 15.79-15.279 0-28.223-5.42-38.833-16.27-10.61-10.84-15.915-23.81-15.915-38.9 0-.61.009-1.21.027-1.82-.018-.63-.027-1.26-.027-1.9z"/><path d="m494.397-650.35c0-15.09 5.376-28.29 16.128-39.39 10.727-11.1 23.907-16.5 39.492-16.5 15.562 0 28.671 5.7 39.282 16.8 10.609 11.3 15.915 24.5 15.915 39.99 0 .34-.003.69-.008 1.03.005.36.008.71.008 1.07 0 15.09-5.376 28.05-16.128 38.9-10.751 10.85-23.907 16.27-39.493 16.27-15.584 0-28.671-5.42-39.281-16.5-10.611-11.09-15.915-24.28-15.915-39.62 0-.34.003-.68.008-1.01-.005-.35-.008-.69-.008-1.04z"/><path d="m549.593 3.469c-15.584 0-28.671-5.42-39.281-16.5-10.611-11.08-15.915-24.28-15.915-39.62 0-15.08 5.376-28.29 16.128-39.37 10.727-11.069 23.907-16.519 39.492-16.519 15.562 0 28.671 5.68 39.282 16.759 10.609 11.32 15.915 24.53 15.915 40.08 0 15.1-5.376 28.05-16.128 38.9-10.751 10.85-23.907 16.27-39.493 16.27z"/><path d="m549.593-195.77c-15.584 0-28.671-5.42-39.281-16.04-10.611-10.84-15.915-24.03-15.915-39.6 0-15.54 5.376-28.54 16.128-39.14 10.727-10.61 23.907-16.03 39.492-16.03 15.562 0 28.671 5.42 39.282 16.26 10.609 10.62 15.915 23.83 15.915 39.38 0 15.58-5.376 28.76-16.128 39.38-10.751 10.61-23.907 15.79-39.493 15.79z"/></g></svg>

<?xml version="1.0" encoding="utf-8"?>
<svg height="48" viewBox="0 -960 960 960" width="48" xmlns="http://www.w3.org/2000/svg">
  <path d="M 479.988 -346.68 C 479.948 -346.68 479.909 -346.68 479.869 -346.68 C 442.766 -346.68 411.209 -359.63 385.234 -385.32 C 367.413 -403.13 355.699 -423.35 350.115 -446.42 C 347.547 -456.74 346.251 -468.05 346.251 -479.38 L 346.251 -479.8 C 346.251 -500.325 350.254 -519.182 358.259 -536.324 L 220.514 -674.07 C 202.405 -667.88 183.91 -666.85 164.929 -670.9 C 160.468 -671.85 156.125 -673.09 151.903 -674.6 C 136.782 -679.63 123.124 -688.16 111.021 -700.27 C 90.257 -721.03 79.834 -745.76 79.728 -774.48 C 79.643 -803.2 90.038 -828.02 110.784 -848.77 C 131.679 -869.66 156.499 -880.06 185.214 -879.97 C 214.085 -880.02 238.961 -869.74 259.726 -848.97 C 271.079 -837.62 279.37 -824.97 284.466 -810.93 C 286.478 -805.87 288.066 -800.63 289.225 -795.2 C 293.297 -776.14 292.121 -757.45 285.845 -739.26 L 423.681 -601.422 C 440.761 -609.337 459.531 -613.33 479.988 -613.33 C 517.131 -613.33 548.729 -600.38 574.745 -574.48 C 600.74 -548.58 613.748 -517.01 613.748 -480 L 613.748 -479.38 C 613.748 -464.01 611.419 -449.45 606.828 -436.1 C 605.362 -431.754 603.666 -427.507 601.74 -423.361 L 739.259 -285.84 C 757.453 -292.12 776.146 -293.3 795.196 -289.22 C 809.168 -286.24 821.905 -280.43 833.46 -271.84 C 839.905 -267.67 846.006 -262.69 851.778 -256.92 C 872.546 -236.15 882.825 -211.28 882.763 -182.42 C 882.864 -153.69 872.456 -128.89 851.561 -107.99 C 830.814 -87.246 806.008 -76.838 777.276 -76.932 C 748.573 -77.026 723.842 -87.445 703.074 -108.21 C 697.344 -113.94 692.417 -120.02 688.283 -126.43 C 679.673 -138.05 673.894 -150.9 670.901 -164.93 C 666.853 -183.91 667.878 -202.4 674.072 -220.51 L 536.225 -358.358 C 519.197 -350.584 500.493 -346.68 480.11 -346.68 C 480.07 -346.68 480.031 -346.68 479.988 -346.68 Z M 479.988 -425.38 C 487.455 -425.38 494.878 -426.8 501.818 -429.83 C 507.886 -432.46 513.569 -436.52 518.526 -441.36 C 519.841 -442.56 521.056 -443.99 522.207 -445.38 C 539.585 -466.86 538.311 -498.21 518.426 -518.02 C 510.029 -526.73 499.593 -531.79 488.727 -533.41 C 473.779 -535.84 458.021 -532 445.679 -521.88 C 444.223 -520.64 442.807 -519.46 441.474 -518.02 C 440.765 -517.4 440.117 -516.62 439.469 -516.01 C 420.351 -494.55 421.039 -461.8 441.572 -441.36 C 452.192 -430.63 466.091 -425.38 479.988 -425.38 Z M 720.82 -721.158 C 709.8 -732.178 704.379 -745.264 704.386 -760.276 C 704.548 -775.444 710.131 -788.528 721.134 -799.531 C 732.129 -810.526 745.116 -815.91 760.214 -815.803 C 775.302 -815.72 788.454 -810.233 799.474 -799.213 C 810.478 -788.209 815.915 -775.107 815.753 -759.939 C 815.753 -744.934 810.164 -731.842 799.161 -720.839 C 788.151 -709.829 775.023 -704.304 759.911 -704.397 C 744.814 -704.504 731.841 -710.137 720.82 -721.158 Z M 582.039 -660.436 C 592.709 -671.106 605.844 -676.639 621.296 -676.885 C 636.73 -677.148 649.868 -671.647 660.888 -660.627 C 671.892 -649.623 677.131 -636.323 676.786 -620.971 C 676.297 -605.479 670.715 -592.393 659.762 -581.44 C 659.522 -581.2 659.272 -580.954 659.028 -580.717 C 658.777 -580.459 658.532 -580.21 658.277 -579.955 C 647.607 -569.285 634.641 -563.922 619.366 -563.853 C 604.092 -563.783 590.957 -569.253 579.936 -580.274 C 568.916 -591.294 563.495 -604.38 563.827 -619.717 C 564.166 -635.062 569.742 -648.139 580.589 -658.986 C 580.83 -659.227 581.072 -659.465 581.309 -659.695 C 581.553 -659.946 581.791 -660.188 582.039 -660.436 Z M 158.748 -159.084 C 147.728 -170.103 142.307 -183.19 142.639 -198.527 C 142.971 -213.865 148.554 -226.949 159.401 -237.796 C 170.064 -248.459 183.207 -253.999 198.644 -254.231 C 214.057 -254.473 227.23 -249.007 238.251 -237.987 C 249.255 -226.983 254.508 -213.697 254.176 -198.359 C 253.673 -182.853 248.084 -169.76 237.089 -158.765 C 226.411 -148.088 213.453 -142.732 198.178 -142.663 C 182.904 -142.593 169.769 -148.063 158.748 -159.084 Z M 299.631 -299.968 C 288.611 -310.988 283.19 -324.074 283.197 -339.086 C 283.359 -354.254 288.935 -367.331 299.945 -378.341 C 310.933 -389.329 323.927 -394.72 339.025 -394.613 C 354.113 -394.53 367.265 -389.043 378.285 -378.023 C 389.289 -367.019 394.726 -353.917 394.564 -338.749 C 394.557 -323.737 388.968 -310.645 377.972 -299.649 C 366.955 -288.632 353.834 -283.114 338.722 -283.207 C 323.617 -283.307 310.652 -288.947 299.631 -299.968 Z" stroke-width=".003"/>
</svg>
